lib/brands/icons/medium-alt.svg

<svg xmlns="http://www.w3.org/2000/svg" fill="none" aria-hidden="true" viewBox="0 0 48 48"><g id="medium-alt-Icon"><circle id="bg" cx="24" cy="24" r="21" fill="#12100E"/><path id="medium" fill="white" d="M13.0781 30L9.65625 34.3594V34.8516H18.0938V34.3594L14.6953 30V18.75L21.9844 34.8516H23.0156L29.25 18.75V31.9688L26.6953 34.3594V34.8516H37.875V34.3594L35.3906 31.9688V15.3281L37.875 13.0078V12.4453H30.1641L24.5391 26.25L18.2578 12.4453H10.0547V13.0078L13.0781 16.5938V30Z"/></g></svg>

<svg xmlns="http://www.w3.org/2000/svg" fill="none" aria-hidden="true" viewBox="0 0 48 48"><circle cx="24" cy="24" r="21" fill="#12100E"/><path fill="#fff" d="m13.078 30-3.422 4.36v.492h8.438v-.493L14.695 30V18.75l7.29 16.102h1.03L29.25 18.75v13.219l-2.555 2.39v.493h11.18v-.493l-2.484-2.39v-16.64l2.484-2.321v-.563h-7.71L24.538 26.25l-6.281-13.805h-8.203v.563l3.023 3.586V30Z"/></svg>
